storage/app/icons/phosphoricons/thin/browsers-thin.svg

<svg xmlns="http://www.w3.org/2000/svg" fill="currentColor" viewBox="0 0 256 256"><path d="M216 44H72a12 12 0 0 0-12 12v20H40a12 12 0 0 0-12 12v112a12 12 0 0 0 12 12h144a12 12 0 0 0 12-12v-20h20a12 12 0 0 0 12-12V56a12 12 0 0 0-12-12M40 84h144a4 4 0 0 1 4 4v20H36V88a4 4 0 0 1 4-4m148 116a4 4 0 0 1-4 4H40a4 4 0 0 1-4-4v-84h152Zm32-32a4 4 0 0 1-4 4h-20V88a12 12 0 0 0-12-12H68V56a4 4 0 0 1 4-4h144a4 4 0 0 1 4 4Z"/></svg>

<svg xmlns="http://www.w3.org/2000/svg" viewBox="0 0 256 256" fill="currentColor"><path d="M216,44H72A12,12,0,0,0,60,56V76H40A12,12,0,0,0,28,88V200a12,12,0,0,0,12,12H184a12,12,0,0,0,12-12V180h20a12,12,0,0,0,12-12V56A12,12,0,0,0,216,44ZM40,84H184a4,4,0,0,1,4,4v20H36V88A4,4,0,0,1,40,84ZM188,200a4,4,0,0,1-4,4H40a4,4,0,0,1-4-4V116H188Zm32-32a4,4,0,0,1-4,4H196V88a12,12,0,0,0-12-12H68V56a4,4,0,0,1,4-4H216a4,4,0,0,1,4,4Z"/></svg>
